X:1
T:Nun Lasst Uns Geh’n
T:Nun Lasst Uns Geh’n
T:Kirchen und Haus-Buch (Dresden, German
T:Public Domain Courtesy of the Cyber Hymnal™
C:Kirchen und Haus-Buch (Dresden, German
Z:Public Domain
Z:Courtesy of the Cyber Hymnal™
%%score ( 1 2 ) ( 3 4 )
L:1/8
M:none
K:Eb
V:1 treble 
V:2 treble 
V:3 bass 
V:4 bass 
V:1
 [EB]2 A2 [EG]2 | [CF]4 E2 | F6 | E4 [EG]2 | (A2 B2) [Gc]2 | (B2 A2) [EG]2 | (G4 F2) | [DG]6 | %8
 [EB]2 [Ec]2 [Fd]2 | [Ee]4 [Gd]2 | [Ac]6 | [EB]4 [Gc]2 | [FA]4 [FB]2 | [EG]4 [CF]2 | [DF]6 | E6 |] %16
V:2
 x2 (CD) x2 | x4 E2 | (E4 D2) | E4 x2 | F4 x2 | F4 x2 | C6 | x6 | x6 | x6 | x6 | x6 | x6 | x6 | %14
 x6 | E6 |] %16
V:3
 G,2 [F,A,]2 [E,B,]2 | [A,,A,]4 [C,G,]2 | [B,,B,]6 | [E,G,]4 [C,C]2 | [F,C]4 [E,C]2 | %5
 [D,F,]4 [E,B,]2 | [A,,C]6 | [G,,=B,]6 | [G,B,]2 A,2 [G,B,]2 | [G,B,]4 [E,B,]2 | (E4 D2) | %11
 [E,E]4 [E,C]2 | [F,C]4 [D,B,]2 | [E,B,]4 [A,,C]2 | (B,4 A,2) | [E,G,]6 |] %16
V:4
 G,2 x4 | x6 | x6 | x6 | x6 | x6 | x6 | x6 | x2 A,2 x2 | x6 | F,6 | x6 | x6 | x6 | B,,6 | x6 |] %16

